src/pos-icons/shield-off-outline.svg

<svg height="24" viewBox="0 0 24 24" width="24" xmlns="http://www.w3.org/2000/svg"><path d="m1 4.27 2 2v4.73c0 5.55 3.84 10.74 9 12 1.87-.46 3.57-1.44 4.97-2.76l2.26 2.26 1.27-1.28-18.22-18.22zm11 16.73c-3.75-1-7-5.46-7-9.78v-2.95l10.59 10.59c-1.06 1.03-2.29 1.79-3.59 2.14m9-16v6c0 2.28-.65 4.5-1.77 6.4l-1.46-1.45c.77-1.45 1.23-3.11 1.23-4.73v-4.92l-7-3.12-4.84 2.16-1.51-1.52 6.35-2.82z"/></svg>

<?xml version="1.0" encoding="UTF-8"?><!DOCTYPE svg PUBLIC "-//W3C//DTD SVG 1.1//EN" "http://www.w3.org/Graphics/SVG/1.1/DTD/svg11.dtd"><svg xmlns="http://www.w3.org/2000/svg" xmlns:xlink="http://www.w3.org/1999/xlink" version="1.1" id="mdi-shield-off-outline" width="24" height="24" viewBox="0 0 24 24"><path d="M1,4.27L3,6.27V11C3,16.55 6.84,21.74 12,23C13.87,22.54 15.57,21.56 16.97,20.24L19.23,22.5L20.5,21.22L2.28,3L1,4.27M12,21C8.25,20 5,15.54 5,11.22V8.27L15.59,18.86C14.53,19.89 13.3,20.65 12,21M21,5V11C21,13.28 20.35,15.5 19.23,17.4L17.77,15.95C18.54,14.5 19,12.84 19,11.22V6.3L12,3.18L7.16,5.34L5.65,3.82L12,1L21,5Z" /></svg>
